refs/otio-conform/reference-exports/colour/redoffset_33pt.cube
TITLE "Generated by Resolve"
LUT_3D_SIZE 5
0.2 0 0
0.449989 0 0
0.699992 0 0
0.949996 0 0
1 0 0
0.2 0.249989 0
0.449989 0.249989 0
0.699992 0.249989 0
0.949996 0.249989 0
1 0.249989 0
0.2 0.499992 0
0.449989 0.499992 0
0.699992 0.499992 0
0.949996 0.499992 0
1 0.499992 0
0.2 0.749996 0
0.449989 0.749996 0
0.699992 0.749996 0
0.949996 0.749996 0
1 0.749996 0
0.2 1 0
0.449989 1 0
0.699992 1 0
0.949996 1 0
1 1 0
0.2 0 0.249989
0.449989 0 0.249989
0.699992 0 0.249989
0.949996 0 0.249989
1 0 0.249989
0.2 0.249989 0.249989
0.449989 0.249989 0.249989
0.699992 0.249989 0.249989
0.949996 0.249989 0.249989
1 0.249989 0.249989
0.2 0.499992 0.249989
0.449989 0.499992 0.249989
0.699992 0.499992 0.249989
0.949996 0.499992 0.249989
1 0.499992 0.249989
0.2 0.749996 0.249989
0.449989 0.749996 0.249989
0.699992 0.749996 0.249989
0.949996 0.749996 0.249989
1 0.749996 0.249989
0.2 1 0.249989
0.449989 1 0.249989
0.699992 1 0.249989
0.949996 1 0.249989
1 1 0.249989
0.2 0 0.499992
0.449989 0 0.499992
0.699992 0 0.499992
0.949996 0 0.499992
1 0 0.499992
0.2 0.249989 0.499992
0.449989 0.249989 0.499992
0.699992 0.249989 0.499992
0.949996 0.249989 0.499992
1 0.249989 0.499992
0.2 0.499992 0.499992
0.449989 0.499992 0.499992
0.699992 0.499992 0.499992
0.949996 0.499992 0.499992
1 0.499992 0.499992
0.2 0.749996 0.499992
0.449989 0.749996 0.499992
0.699992 0.749996 0.499992
0.949996 0.749996 0.499992
1 0.749996 0.499992
0.2 1 0.499992
0.449989 1 0.499992
0.699992 1 0.499992
0.949996 1 0.499992
1 1 0.499992
0.2 0 0.749996
0.449989 0 0.749996
0.699992 0 0.749996
0.949996 0 0.749996
1 0 0.749996
0.2 0.249989 0.749996
0.449989 0.249989 0.749996
0.699992 0.249989 0.749996
0.949996 0.249989 0.749996
1 0.249989 0.749996
0.2 0.499992 0.749996
0.449989 0.499992 0.749996
0.699992 0.499992 0.749996
0.949996 0.499992 0.749996
1 0.499992 0.749996
0.2 0.749996 0.749996
0.449989 0.749996 0.749996
0.699992 0.749996 0.749996
0.949996 0.749996 0.749996
1 0.749996 0.749996
0.2 1 0.749996
0.449989 1 0.749996
0.699992 1 0.749996
0.949996 1 0.749996
1 1 0.749996
0.2 0 1
0.449989 0 1
0.699992 0 1
0.949996 0 1
1 0 1
0.2 0.249989 1
0.449989 0.249989 1
0.699992 0.249989 1
0.949996 0.249989 1
1 0.249989 1
0.2 0.499992 1
0.449989 0.499992 1
0.699992 0.499992 1
0.949996 0.499992 1
1 0.499992 1
0.2 0.749996 1
0.449989 0.749996 1
0.699992 0.749996 1
0.949996 0.749996 1
1 0.749996 1
0.2 1 1
0.449989 1 1
0.699992 1 1
0.949996 1 1
1 1 1
