refs/otio-conform/reference-exports/colour/redoffset_33pt.cube
TITLE "Generated by Resolve"
LUT_3D_SIZE 33
0.2 0 0
0.231235 0 0
0.262486 0 0
0.293736 0 0
0.324987 0 0
0.356237 0 0
0.387488 0 0
0.418738 0 0
0.449989 0 0
0.481239 0 0
0.512489 0 0
0.54374 0 0
0.57499 0 0
0.606241 0 0
0.637491 0 0
0.668742 0 0
0.699992 0 0
0.731243 0 0
0.762493 0 0
0.793744 0 0
0.824994 0 0
0.856245 0 0
0.887495 0 0
0.918746 0 0
0.949996 0 0
0.981247 0 0
1 0 0
1 0 0
1 0 0
1 0 0
1 0 0
1 0 0
1 0 0
0.2 0.0312352 0
0.231235 0.0312352 0
0.262486 0.0312352 0
0.293736 0.0312352 0
0.324987 0.0312352 0
0.356237 0.0312352 0
0.387488 0.0312352 0
0.418738 0.0312352 0
0.449989 0.0312352 0
0.481239 0.0312352 0
0.512489 0.0312352 0
0.54374 0.0312352 0
0.57499 0.0312352 0
0.606241 0.0312352 0
0.637491 0.0312352 0
0.668742 0.0312352 0
0.699992 0.0312352 0
0.731243 0.0312352 0
0.762493 0.0312352 0
0.793744 0.0312352 0
0.824994 0.0312352 0
0.856245 0.0312352 0
0.887495 0.0312352 0
0.918746 0.0312352 0
0.949996 0.0312352 0
0.981247 0.0312352 0
1 0.0312352 0
1 0.0312352 0
1 0.0312352 0
1 0.0312352 0
1 0.0312352 0
1 0.0312352 0
1 0.0312352 0
0.2 0.0624857 0
0.231235 0.0624857 0
0.262486 0.0624857 0
0.293736 0.0624857 0
0.324987 0.0624857 0
0.356237 0.0624857 0
0.387488 0.0624857 0
0.418738 0.0624857 0
0.449989 0.0624857 0
0.481239 0.0624857 0
0.512489 0.0624857 0
0.54374 0.0624857 0
0.57499 0.0624857 0
0.606241 0.0624857 0
0.637491 0.0624857 0
0.668742 0.0624857 0
0.699992 0.0624857 0
0.731243 0.0624857 0
0.762493 0.0624857 0
0.793744 0.0624857 0
0.824994 0.0624857 0
0.856245 0.0624857 0
0.887495 0.0624857 0
0.918746 0.0624857 0
0.949996 0.0624857 0
0.981247 0.0624857 0
1 0.0624857 0
1 0.0624857 0
1 0.0624857 0
1 0.0624857 0
1 0.0624857 0
1 0.0624857 0
1 0.0624857 0
0.2 0.0937362 0
0.231235 0.0937362 0
0.262486 0.0937362 0
0.293736 0.0937362 0
0.324987 0.0937362 0
0.356237 0.0937362 0
0.387488 0.0937362 0
0.418738 0.0937362 0
0.449989 0.0937362 0
0.481239 0.0937362 0
0.512489 0.0937362 0
0.54374 0.0937362 0
0.57499 0.0937362 0
0.606241 0.0937362 0
0.637491 0.0937362 0
0.668742 0.0937362 0
0.699992 0.0937362 0
0.731243 0.0937362 0
0.762493 0.0937362 0
0.793744 0.0937362 0
0.824994 0.0937362 0
0.856245 0.0937362 0
0.887495 0.0937362 0
0.918746 0.0937362 0
0.949996 0.0937362 0
0.981247 0.0937362 0
1 0.0937362 0
1 0.0937362 0
1 0.0937362 0
1 0.0937362 0
1 0.0937362 0
1 0.0937362 0
1 0.0937362 0
0.2 0.124987 0
0.231235 0.124987 0
0.262486 0.124987 0
0.293736 0.124987 0
0.324987 0.124987 0
0.356237 0.124987 0
0.387488 0.124987 0
0.418738 0.124987 0
0.449989 0.124987 0
0.481239 0.124987 0
0.512489 0.124987 0
0.54374 0.124987 0
0.57499 0.124987 0
0.606241 0.124987 0
0.637491 0.124987 0
0.668742 0.124987 0
0.699992 0.124987 0
0.731243 0.124987 0
0.762493 0.124987 0
0.793744 0.124987 0
0.824994 0.124987 0
0.856245 0.124987 0
0.887495 0.124987 0
0.918746 0.124987 0
0.949996 0.124987 0
0.981247 0.124987 0
1 0.124987 0
1 0.124987 0
1 0.124987 0
1 0.124987 0
1 0.124987 0
1 0.124987 0
1 0.124987 0
0.2 0.156237 0
0.231235 0.156237 0
0.262486 0.156237 0
0.293736 0.156237 0
0.324987 0.156237 0
0.356237 0.156237 0
0.387488 0.156237 0
0.418738 0.156237 0
0.449989 0.156237 0
0.481239 0.156237 0
0.512489 0.156237 0
0.54374 0.156237 0
0.57499 0.156237 0
0.606241 0.156237 0
0.637491 0.156237 0
0.668742 0.156237 0
0.699992 0.156237 0
0.731243 0.156237 0
0.762493 0.156237 0
0.793744 0.156237 0
0.824994 0.156237 0
0.856245 0.156237 0
0.887495 0.156237 0
0.918746 0.156237 0
0.949996 0.156237 0
0.981247 0.156237 0
1 0.156237 0
1 0.156237 0
1 0.156237 0
1 0.156237 0
1 0.156237 0
1 0.156237 0
1 0.156237 0
0.2 0.187488 0
0.231235 0.187488 0
0.262486 0.187488 0
0.293736 0.187488 0
0.324987 0.187488 0
0.356237 0.187488 0
0.387488 0.187488 0
0.418738 0.187488 0
0.449989 0.187488 0
0.481239 0.187488 0
0.512489 0.187488 0
0.54374 0.187488 0
0.57499 0.187488 0
0.606241 0.187488 0
0.637491 0.187488 0
0.668742 0.187488 0
0.699992 0.187488 0
0.731243 0.187488 0
0.762493 0.187488 0
0.793744 0.187488 0
0.824994 0.187488 0
0.856245 0.187488 0
0.887495 0.187488 0
0.918746 0.187488 0
0.949996 0.187488 0
0.981247 0.187488 0
1 0.187488 0
1 0.187488 0
1 0.187488 0
1 0.187488 0
1 0.187488 0
1 0.187488 0
1 0.187488 0
0.2 0.218738 0
0.231235 0.218738 0
0.262486 0.218738 0
0.293736 0.218738 0
0.324987 0.218738 0
0.356237 0.218738 0
0.387488 0.218738 0
0.418738 0.218738 0
0.449989 0.218738 0
0.481239 0.218738 0
0.512489 0.218738 0
0.54374 0.218738 0
0.57499 0.218738 0
0.606241 0.218738 0
0.637491 0.218738 0
0.668742 0.218738 0
0.699992 0.218738 0
0.731243 0.218738 0
0.762493 0.218738 0
0.793744 0.218738 0
0.824994 0.218738 0
0.856245 0.218738 0
0.887495 0.218738 0
0.918746 0.218738 0
0.949996 0.218738 0
0.981247 0.218738 0
1 0.218738 0
1 0.218738 0
1 0.218738 0
1 0.218738 0
1 0.218738 0
1 0.218738 0
1 0.218738 0
0.2 0.249989 0
0.231235 0.249989 0
0.262486 0.249989 0
0.293736 0.249989 0
0.324987 0.249989 0
0.356237 0.249989 0
0.387488 0.249989 0
0.418738 0.249989 0
0.449989 0.249989 0
0.481239 0.249989 0
0.512489 0.249989 0
0.54374 0.249989 0
0.57499 0.249989 0
0.606241 0.249989 0
0.637491 0.249989 0
0.668742 0.249989 0
0.699992 0.249989 0
0.731243 0.249989 0
0.762493 0.249989 0
0.793744 0.249989 0
0.824994 0.249989 0
0.856245 0.249989 0
0.887495 0.249989 0
0.918746 0.249989 0
0.949996 0.249989 0
0.981247 0.249989 0
1 0.249989 0
1 0.249989 0
1 0.249989 0
1 0.249989 0
1 0.249989 0
1 0.249989 0
1 0.249989 0
0.2 0.281239 0
0.231235 0.281239 0
0.262486 0.281239 0
0.293736 0.281239 0
0.324987 0.281239 0
0.356237 0.281239 0
0.387488 0.281239 0
0.418738 0.281239 0
0.449989 0.281239 0
0.481239 0.281239 0
0.512489 0.281239 0
0.54374 0.281239 0
0.57499 0.281239 0
0.606241 0.281239 0
0.637491 0.281239 0
0.668742 0.281239 0
0.699992 0.281239 0
0.731243 0.281239 0
0.762493 0.281239 0
0.793744 0.281239 0
0.824994 0.281239 0
0.856245 0.281239 0
0.887495 0.281239 0
0.918746 0.281239 0
0.949996 0.281239 0
0.981247 0.281239 0
1 0.281239 0
1 0.281239 0
1 0.281239 0
1 0.281239 0
1 0.281239 0
1 0.281239 0
1 0.281239 0
0.2 0.31249 0
0.231235 0.31249 0
0.262486 0.31249 0
0.293736 0.31249 0
0.324987 0.31249 0
0.356237 0.31249 0
0.387488 0.31249 0
0.418738 0.31249 0
0.449989 0.31249 0
0.481239 0.31249 0
0.512489 0.31249 0
0.54374 0.31249 0
0.57499 0.31249 0
0.606241 0.31249 0
0.637491 0.31249 0
0.668742 0.31249 0
0.699992 0.31249 0
0.731243 0.31249 0
0.762493 0.31249 0
0.793744 0.31249 0
0.824994 0.31249 0
0.856245 0.31249 0
0.887495 0.31249 0
0.918746 0.31249 0
0.949996 0.31249 0
0.981247 0.31249 0
1 0.31249 0
1 0.31249 0
1 0.31249 0
1 0.31249 0
1 0.31249 0
1 0.31249 0
1 0.31249 0
0.2 0.34374 0
0.231235 0.34374 0
0.262486 0.34374 0
0.293736 0.34374 0
0.324987 0.34374 0
0.356237 0.34374 0
0.387488 0.34374 0
0.418738 0.34374 0
0.449989 0.34374 0
0.481239 0.34374 0
0.512489 0.34374 0
0.54374 0.34374 0
0.57499 0.34374 0
0.606241 0.34374 0
0.637491 0.34374 0
0.668742 0.34374 0
0.699992 0.34374 0
0.731243 0.34374 0
0.762493 0.34374 0
0.793744 0.34374 0
0.824994 0.34374 0
0.856245 0.34374 0
0.887495 0.34374 0
0.918746 0.34374 0
0.949996 0.34374 0
0.981247 0.34374 0
1 0.34374 0
1 0.34374 0
1 0.34374 0
1 0.34374 0
1 0.34374 0
1 0.34374 0
1 0.34374 0
0.2 0.37499 0
0.231235 0.37499 0
0.262486 0.37499 0
0.293736 0.37499 0
0.324987 0.37499 0
0.356237 0.37499 0
0.387488 0.37499 0
0.418738 0.37499 0
0.449989 0.37499 0
0.481239 0.37499 0
0.512489 0.37499 0
0.54374 0.37499 0
0.57499 0.37499 0
0.606241 0.37499 0
0.637491 0.37499 0
0.668742 0.37499 0
0.699992 0.37499 0
0.731243 0.37499 0
0.762493 0.37499 0
0.793744 0.37499 0
0.824994 0.37499 0
0.856245 0.37499 0
0.887495 0.37499 0
0.918746 0.37499 0
0.949996 0.37499 0
0.981247 0.37499 0
1 0.37499 0
1 0.37499 0
1 0.37499 0
1 0.37499 0
1 0.37499 0
1 0.37499 0
1 0.37499 0
0.2 0.406241 0
0.231235 0.406241 0
0.262486 0.406241 0
0.293736 0.406241 0
0.324987 0.406241 0
0.356237 0.406241 0
0.387488 0.406241 0
0.418738 0.406241 0
0.449989 0.406241 0
0.481239 0.406241 0
0.512489 0.406241 0
0.54374 0.406241 0
0.57499 0.406241 0
0.606241 0.406241 0
0.637491 0.406241 0
0.668742 0.406241 0
0.699992 0.406241 0
0.731243 0.406241 0
0.762493 0.406241 0
0.793744 0.406241 0
0.824994 0.406241 0
0.856245 0.406241 0
0.887495 0.406241 0
0.918746 0.406241 0
0.949996 0.406241 0
0.981247 0.406241 0
1 0.406241 0
1 0.406241 0
1 0.406241 0
1 0.406241 0
1 0.406241 0
1 0.406241 0
1 0.406241 0
0.2 0.437491 0
0.231235 0.437491 0
0.262486 0.437491 0
0.293736 0.437491 0
0.324987 0.437491 0
0.356237 0.437491 0
0.387488 0.437491 0
0.418738 0.437491 0
0.449989 0.437491 0
0.481239 0.437491 0
0.512489 0.437491 0
0.54374 0.437491 0
0.57499 0.437491 0
0.606241 0.437491 0
0.637491 0.437491 0
0.668742 0.437491 0
0.699992 0.437491 0
0.731243 0.437491 0
0.762493 0.437491 0
0.793744 0.437491 0
0.824994 0.437491 0
0.856245 0.437491 0
0.887495 0.437491 0
0.918746 0.437491 0
0.949996 0.437491 0
0.981247 0.437491 0
1 0.437491 0
1 0.437491 0
1 0.437491 0
1 0.437491 0
1 0.437491 0
1 0.437491 0
1 0.437491 0
0.2 0.468742 0
0.231235 0.468742 0
0.262486 0.468742 0
0.293736 0.468742 0
0.324987 0.468742 0
0.356237 0.468742 0
0.387488 0.468742 0
0.418738 0.468742 0
0.449989 0.468742 0
0.481239 0.468742 0
0.512489 0.468742 0
0.54374 0.468742 0
0.57499 0.468742 0
0.606241 0.468742 0
0.637491 0.468742 0
0.668742 0.468742 0
0.699992 0.468742 0
0.731243 0.468742 0
0.762493 0.468742 0
0.793744 0.468742 0
0.824994 0.468742 0
0.856245 0.468742 0
0.887495 0.468742 0
0.918746 0.468742 0
0.949996 0.468742 0
0.981247 0.468742 0
1 0.468742 0
1 0.468742 0
1 0.468742 0
1 0.468742 0
1 0.468742 0
1 0.468742 0
1 0.468742 0
0.2 0.499992 0
0.231235 0.499992 0
0.262486 0.499992 0
0.293736 0.499992 0
0.324987 0.499992 0
0.356237 0.499992 0
0.387488 0.499992 0
0.418738 0.499992 0
0.449989 0.499992 0
0.481239 0.499992 0
0.512489 0.499992 0
0.54374 0.499992 0
0.57499 0.499992 0
0.606241 0.499992 0
0.637491 0.499992 0
0.668742 0.499992 0
0.699992 0.499992 0
0.731243 0.499992 0
0.762493 0.499992 0
0.793744 0.499992 0
0.824994 0.499992 0
0.856245 0.499992 0
0.887495 0.499992 0
0.918746 0.499992 0
0.949996 0.499992 0
0.981247 0.499992 0
1 0.499992 0
1 0.499992 0
1 0.499992 0
1 0.499992 0
1 0.499992 0
1 0.499992 0
1 0.499992 0
0.2 0.531243 0
0.231235 0.531243 0
0.262486 0.531243 0
0.293736 0.531243 0
0.324987 0.531243 0
0.356237 0.531243 0
0.387488 0.531243 0
0.418738 0.531243 0
0.449989 0.531243 0
0.481239 0.531243 0
0.512489 0.531243 0
0.54374 0.531243 0
0.57499 0.531243 0
0.606241 0.531243 0
0.637491 0.531243 0
0.668742 0.531243 0
0.699992 0.531243 0
0.731243 0.531243 0
0.762493 0.531243 0
0.793744 0.531243 0
0.824994 0.531243 0
0.856245 0.531243 0
0.887495 0.531243 0
0.918746 0.531243 0
0.949996 0.531243 0
0.981247 0.531243 0
1 0.531243 0
1 0.531243 0
1 0.531243 0
1 0.531243 0
1 0.531243 0
1 0.531243 0
1 0.531243 0
0.2 0.562493 0
0.231235 0.562493 0
0.262486 0.562493 0
0.293736 0.562493 0
0.324987 0.562493 0
0.356237 0.562493 0
0.387488 0.562493 0
0.418738 0.562493 0
0.449989 0.562493 0
0.481239 0.562493 0
0.512489 0.562493 0
0.54374 0.562493 0
0.57499 0.562493 0
0.606241 0.562493 0
0.637491 0.562493 0
0.668742 0.562493 0
0.699992 0.562493 0
0.731243 0.562493 0
0.762493 0.562493 0
0.793744 0.562493 0
0.824994 0.562493 0
0.856245 0.562493 0
0.887495 0.562493 0
0.918746 0.562493 0
0.949996 0.562493 0
0.981247 0.562493 0
1 0.562493 0
1 0.562493 0
1 0.562493 0
1 0.562493 0
1 0.562493 0
1 0.562493 0
1 0.562493 0
0.2 0.593744 0
0.231235 0.593744 0
0.262486 0.593744 0
0.293736 0.593744 0
0.324987 0.593744 0
0.356237 0.593744 0
0.387488 0.593744 0
0.418738 0.593744 0
0.449989 0.593744 0
0.481239 0.593744 0
0.512489 0.593744 0
0.54374 0.593744 0
0.57499 0.593744 0
0.606241 0.593744 0
0.637491 0.593744 0
0.668742 0.593744 0
0.699992 0.593744 0
0.731243 0.593744 0
0.762493 0.593744 0
0.793744 0.593744 0
0.824994 0.593744 0
0.856245 0.593744 0
0.887495 0.593744 0
0.918746 0.593744 0
0.949996 0.593744 0
0.981247 0.593744 0
1 0.593744 0
1 0.593744 0
1 0.593744 0
1 0.593744 0
1 0.593744 0
1 0.593744 0
1 0.593744 0
0.2 0.624994 0
0.231235 0.624994 0
0.262486 0.624994 0
0.293736 0.624994 0
0.324987 0.624994 0
0.356237 0.624994 0
0.387488 0.624994 0
0.418738 0.624994 0
0.449989 0.624994 0
0.481239 0.624994 0
0.512489 0.624994 0
0.54374 0.624994 0
0.57499 0.624994 0
0.606241 0.624994 0
0.637491 0.624994 0
0.668742 0.624994 0
0.699992 0.624994 0
0.731243 0.624994 0
0.762493 0.624994 0
0.793744 0.624994 0
0.824994 0.624994 0
0.856245 0.624994 0
0.887495 0.624994 0
0.918746 0.624994 0
0.949996 0.624994 0
0.981247 0.624994 0
1 0.624994 0
1 0.624994 0
1 0.624994 0
1 0.624994 0
1 0.624994 0
1 0.624994 0
1 0.624994 0
0.2 0.656245 0
0.231235 0.656245 0
0.262486 0.656245 0
0.293736 0.656245 0
0.324987 0.656245 0
0.356237 0.656245 0
0.387488 0.656245 0
0.418738 0.656245 0
0.449989 0.656245 0
0.481239 0.656245 0
0.512489 0.656245 0
0.54374 0.656245 0
0.57499 0.656245 0
0.606241 0.656245 0
0.637491 0.656245 0
0.668742 0.656245 0
0.699992 0.656245 0
0.731243 0.656245 0
0.762493 0.656245 0
0.793744 0.656245 0
0.824994 0.656245 0
0.856245 0.656245 0
0.887495 0.656245 0
0.918746 0.656245 0
0.949996 0.656245 0
0.981247 0.656245 0
1 0.656245 0
1 0.656245 0
1 0.656245 0
1 0.656245 0
1 0.656245 0
1 0.656245 0
1 0.656245 0
0.2 0.687495 0
0.231235 0.687495 0
0.262486 0.687495 0
0.293736 0.687495 0
0.324987 0.687495 0
0.356237 0.687495 0
0.387488 0.687495 0
0.418738 0.687495 0
0.449989 0.687495 0
0.481239 0.687495 0
0.512489 0.687495 0
0.54374 0.687495 0
0.57499 0.687495 0
0.606241 0.687495 0
0.637491 0.687495 0
0.668742 0.687495 0
0.699992 0.687495 0
0.731243 0.687495 0
0.762493 0.687495 0
0.793744 0.687495 0
0.824994 0.687495 0
0.856245 0.687495 0
0.887495 0.687495 0
0.918746 0.687495 0
0.949996 0.687495 0
0.981247 0.687495 0
1 0.687495 0
1 0.687495 0
1 0.687495 0
1 0.687495 0
1 0.687495 0
1 0.687495 0
1 0.687495 0
0.2 0.718746 0
0.231235 0.718746 0
0.262486 0.718746 0
0.293736 0.718746 0
0.324987 0.718746 0
0.356237 0.718746 0
0.387488 0.718746 0
0.418738 0.718746 0
0.449989 0.718746 0
0.481239 0.718746 0
0.512489 0.718746 0
0.54374 0.718746 0
0.57499 0.718746 0
0.606241 0.718746 0
0.637491 0.718746 0
0.668742 0.718746 0
0.699992 0.718746 0
0.731243 0.718746 0
0.762493 0.718746 0
0.793744 0.718746 0
0.824994 0.718746 0
0.856245 0.718746 0
0.887495 0.718746 0
0.918746 0.718746 0
0.949996 0.718746 0
0.981247 0.718746 0
1 0.718746 0
1 0.718746 0
1 0.718746 0
1 0.718746 0
1 0.718746 0
1 0.718746 0
1 0.718746 0
0.2 0.749996 0
0.231235 0.749996 0
0.262486 0.749996 0
0.293736 0.749996 0
0.324987 0.749996 0
0.356237 0.749996 0
0.387488 0.749996 0
0.418738 0.749996 0
0.449989 0.749996 0
0.481239 0.749996 0
0.512489 0.749996 0
0.54374 0.749996 0
0.57499 0.749996 0
0.606241 0.749996 0
0.637491 0.749996 0
0.668742 0.749996 0
0.699992 0.749996 0
0.731243 0.749996 0
0.762493 0.749996 0
0.793744 0.749996 0
0.824994 0.749996 0
0.856245 0.749996 0
0.887495 0.749996 0
0.918746 0.749996 0
0.949996 0.749996 0
0.981247 0.749996 0
1 0.749996 0
1 0.749996 0
1 0.749996 0
1 0.749996 0
1 0.749996 0
1 0.749996 0
1 0.749996 0
0.2 0.781247 0
0.231235 0.781247 0
0.262486 0.781247 0
0.293736 0.781247 0
0.324987 0.781247 0
0.356237 0.781247 0
0.387488 0.781247 0
0.418738 0.781247 0
0.449989 0.781247 0
0.481239 0.781247 0
0.512489 0.781247 0
0.54374 0.781247 0
0.57499 0.781247 0
0.606241 0.781247 0
0.637491 0.781247 0
0.668742 0.781247 0
0.699992 0.781247 0
0.731243 0.781247 0
0.762493 0.781247 0
0.793744 0.781247 0
0.824994 0.781247 0
0.856245 0.781247 0
0.887495 0.781247 0
0.918746 0.781247 0
0.949996 0.781247 0
0.981247 0.781247 0
1 0.781247 0
1 0.781247 0
1 0.781247 0
1 0.781247 0
1 0.781247 0
1 0.781247 0
1 0.781247 0
0.2 0.812497 0
0.231235 0.812497 0
0.262486 0.812497 0
0.293736 0.812497 0
0.324987 0.812497 0
0.356237 0.812497 0
0.387488 0.812497 0
0.418738 0.812497 0
0.449989 0.812497 0
0.481239 0.812497 0
0.512489 0.812497 0
0.54374 0.812497 0
0.57499 0.812497 0
0.606241 0.812497 0
0.637491 0.812497 0
0.668742 0.812497 0
0.699992 0.812497 0
0.731243 0.812497 0
0.762493 0.812497 0
0.793744 0.812497 0
0.824994 0.812497 0
0.856245 0.812497 0
0.887495 0.812497 0
0.918746 0.812497 0
0.949996 0.812497 0
0.981247 0.812497 0
1 0.812497 0
1 0.812497 0
1 0.812497 0
1 0.812497 0
1 0.812497 0
1 0.812497 0
1 0.812497 0
0.2 0.843748 0
0.231235 0.843748 0
0.262486 0.843748 0
0.293736 0.843748 0
0.324987 0.843748 0
0.356237 0.843748 0
0.387488 0.843748 0
0.418738 0.843748 0
0.449989 0.843748 0
